src/assets/paint-icon.svg

<svg width="400" height="400" xmlns="http://www.w3.org/2000/svg">

 <g>
  <title>background</title>
  <rect fill="none" id="canvas_background" height="402" width="582" y="-1" x="-1"/>
 </g>
 <g>
  <title>Layer 1</title>
  <path id="path0" fill-rule="evenodd" fill="#000000" d="m198.047,175.977c1.384,1.396 2.604,2.539 2.712,2.539c0.107,0 -0.937,-1.143 -2.321,-2.539c-1.385,-1.397 -2.605,-2.539 -2.712,-2.539c-0.108,0 0.937,1.142 2.321,2.539m-85.755,35.449l-2.331,2.441l2.441,-2.331c2.268,-2.166 2.62,-2.552 2.332,-2.552c-0.061,0 -1.159,1.099 -2.442,2.442m48.841,0.293c1.275,1.289 2.407,2.344 2.514,2.344c0.108,0 -0.848,-1.055 -2.124,-2.344c-1.275,-1.289 -2.407,-2.344 -2.514,-2.344c-0.108,0 0.848,1.055 2.124,2.344m1.562,23.828c1.276,1.289 2.407,2.344 2.515,2.344c0.107,0 -0.848,-1.055 -2.124,-2.344c-1.276,-1.289 -2.407,-2.344 -2.515,-2.344c-0.107,0 0.849,1.055 2.124,2.344m88.648,7.129l-1.148,1.269l1.27,-1.147c0.698,-0.631 1.269,-1.202 1.269,-1.27c0,-0.301 -0.322,-0.036 -1.391,1.148"/>
  <path id="path1" fill-rule="evenodd" fill="#2b2b2b" d="m188.281,166.211c1.384,1.396 2.605,2.539 2.712,2.539c0.107,0 -0.937,-1.143 -2.321,-2.539c-1.384,-1.397 -2.605,-2.539 -2.712,-2.539c-0.107,0 0.937,1.142 2.321,2.539m-17.968,54.687c1.166,1.182 2.209,2.149 2.317,2.149c0.107,0 -0.76,-0.967 -1.927,-2.149c-1.167,-1.181 -2.21,-2.148 -2.317,-2.148c-0.107,0 0.76,0.967 1.927,2.148m-16.602,5.665c1.276,1.289 2.407,2.343 2.515,2.343c0.107,0 -0.849,-1.054 -2.124,-2.343c-1.276,-1.29 -2.408,-2.344 -2.515,-2.344c-0.107,0 0.848,1.054 2.124,2.344m90.026,23.73l-2.135,2.246l2.246,-2.135c2.086,-1.984 2.425,-2.357 2.135,-2.357c-0.061,0 -1.072,1.011 -2.246,2.246"/>
  <path id="path2" fill-rule="evenodd" fill="#e6e6e6" d="m183.984,0.433c-121.413,10.305 -205.34,123.708 -179.456,242.487c28.603,131.255 178.217,197.342 295.081,130.343c56.417,-32.344 91.722,-86.859 99.685,-153.927c0.698,-5.874 0.698,-33.189 0,-39.063c-11.735,-98.838 -85.803,-171.514 -183.278,-179.834c-5.053,-0.431 -26.97,-0.435 -32.032,-0.006m27.539,16.373c114.203,7.566 193.686,115.426 166.805,226.358c-19.852,81.927 -93.845,140.027 -178.328,140.027c-101.125,0 -183.594,-82.375 -183.594,-183.386c0,-105.491 90.061,-189.958 195.117,-182.999m73.243,88.895c-10.913,2.87 -29.275,15.103 -39.672,26.43c-4.098,4.464 -15.797,21.047 -15.797,22.391c0,0.376 -8.729,13.733 -11.449,17.518c-1.531,2.132 -4.681,5.823 -6.998,8.203l-4.215,4.327l-14.579,-14.738c-20.719,-20.944 -17.515,-20.873 -37.417,-0.833c-15.303,15.409 -15.396,15.536 -14.379,19.784c0.475,1.989 28.931,31.282 70.551,72.628c11.476,11.4 10.78,11.577 29.423,-7.462c19.188,-19.596 19.325,-16.408 -1.602,-37.375l-14.454,-14.48l4.238,-4.094c5.928,-5.727 10.814,-9.313 22.561,-16.561c17.726,-10.936 24.204,-15.981 31.791,-24.754c27.258,-31.518 28.291,-57.9 1.998,-50.984m-162.305,96.421c-2.302,1.04 -51.177,50.599 -51.692,52.416c-1.225,4.315 0.834,8.164 5.312,9.933c12.596,4.977 21.684,11.725 37.591,27.913c10.906,11.099 21.72,20.027 27.93,23.057c17.956,8.764 39.356,0.386 60.579,-23.714c5.079,-5.768 5.943,-8.37 3.971,-11.95c-1.305,-2.369 -75.545,-76.862 -77.356,-77.618c-1.749,-0.731 -4.759,-0.748 -6.335,-0.037"/>
  <path id="path3" fill-rule="evenodd" fill="#404040"/>
  <path id="path4" fill-rule="evenodd" fill="#555555" d="m193.164,171.094c1.276,1.289 2.407,2.344 2.515,2.344c0.107,0 -0.849,-1.055 -2.124,-2.344c-1.276,-1.289 -2.407,-2.344 -2.515,-2.344c-0.107,0 0.848,1.055 2.124,2.344m-76.38,35.84l-2.136,2.246l2.247,-2.135c2.086,-1.984 2.425,-2.357 2.135,-2.357c-0.061,0 -1.072,1.01 -2.246,2.246m48.841,9.277c1.167,1.182 2.21,2.148 2.317,2.148c0.107,0 -0.759,-0.966 -1.926,-2.148c-1.167,-1.182 -2.21,-2.148 -2.317,-2.148c-0.108,0 0.759,0.966 1.926,2.148m-7.422,14.844c1.167,1.181 2.21,2.148 2.317,2.148c0.108,0 -0.759,-0.967 -1.926,-2.148c-1.167,-1.182 -2.21,-2.149 -2.317,-2.149c-0.108,0 0.759,0.967 1.926,2.149m89.831,14.941l-2.136,2.246l2.247,-2.135c2.086,-1.983 2.425,-2.357 2.135,-2.357c-0.061,0 -1.072,1.011 -2.246,2.246"/>
 </g>
</svg>

<?xml version="1.0" ?><svg height="400" id="svg" style="display: block;" version="1.1" width="400" xmlns="http://www.w3.org/2000/svg" xmlns:xlink="http://www.w3.org/1999/xlink"><g id="svgg"><path d="M198.047 175.977 C 199.431 177.373,200.651 178.516,200.759 178.516 C 200.866 178.516,199.822 177.373,198.438 175.977 C 197.053 174.580,195.833 173.438,195.726 173.438 C 195.618 173.438,196.663 174.580,198.047 175.977 M112.292 211.426 L 109.961 213.867 112.402 211.536 C 114.670 209.370,115.022 208.984,114.734 208.984 C 114.673 208.984,113.575 210.083,112.292 211.426 M161.133 211.719 C 162.408 213.008,163.540 214.063,163.647 214.063 C 163.755 214.063,162.799 213.008,161.523 211.719 C 160.248 210.430,159.116 209.375,159.009 209.375 C 158.901 209.375,159.857 210.430,161.133 211.719 M162.695 235.547 C 163.971 236.836,165.102 237.891,165.210 237.891 C 165.317 237.891,164.362 236.836,163.086 235.547 C 161.810 234.258,160.679 233.203,160.571 233.203 C 160.464 233.203,161.420 234.258,162.695 235.547 M251.343 242.676 L 250.195 243.945 251.465 242.798 C 252.163 242.167,252.734 241.596,252.734 241.528 C 252.734 241.227,252.412 241.492,251.343 242.676 " fill="#000000" fill-rule="evenodd" id="path0" stroke="none"/><path d="M188.281 166.211 C 189.665 167.607,190.886 168.750,190.993 168.750 C 191.100 168.750,190.056 167.607,188.672 166.211 C 187.288 164.814,186.067 163.672,185.960 163.672 C 185.853 163.672,186.897 164.814,188.281 166.211 M170.313 220.898 C 171.479 222.080,172.522 223.047,172.630 223.047 C 172.737 223.047,171.870 222.080,170.703 220.898 C 169.536 219.717,168.493 218.750,168.386 218.750 C 168.279 218.750,169.146 219.717,170.313 220.898 M153.711 226.563 C 154.987 227.852,156.118 228.906,156.226 228.906 C 156.333 228.906,155.377 227.852,154.102 226.563 C 152.826 225.273,151.694 224.219,151.587 224.219 C 151.480 224.219,152.435 225.273,153.711 226.563 M243.737 250.293 L 241.602 252.539 243.848 250.404 C 245.934 248.420,246.273 248.047,245.983 248.047 C 245.922 248.047,244.911 249.058,243.737 250.293 " fill="#2b2b2b" fill-rule="evenodd" id="path1" stroke="none"/><path d="M183.984 0.433 C 62.571 10.738,-21.356 124.141,4.528 242.920 C 33.131 374.175,182.745 440.262,299.609 373.263 C 356.026 340.919,391.331 286.404,399.294 219.336 C 399.992 213.462,399.992 186.147,399.294 180.273 C 387.559 81.435,313.491 8.759,216.016 0.439 C 210.963 0.008,189.046 0.004,183.984 0.433 M211.523 16.806 C 325.726 24.372,405.209 132.232,378.328 243.164 C 358.476 325.091,284.483 383.191,200.000 383.191 C 98.875 383.191,16.406 300.816,16.406 199.805 C 16.406 94.314,106.467 9.847,211.523 16.806 M284.766 105.701 C 273.853 108.571,255.491 120.804,245.094 132.131 C 240.996 136.595,229.297 153.178,229.297 154.522 C 229.297 154.898,220.568 168.255,217.848 172.040 C 216.317 174.172,213.167 177.863,210.850 180.243 L 206.635 184.570 192.056 169.832 C 171.337 148.888,174.541 148.959,154.639 168.999 C 139.336 184.408,139.243 184.535,140.260 188.783 C 140.735 190.772,169.191 220.065,210.811 261.411 C 222.287 272.811,221.591 272.988,240.234 253.949 C 259.422 234.353,259.559 237.541,238.632 216.574 L 224.178 202.094 228.416 198.000 C 234.344 192.273,239.230 188.687,250.977 181.439 C 268.703 170.503,275.181 165.458,282.768 156.685 C 310.026 125.167,311.059 98.785,284.766 105.701 M122.461 202.122 C 120.159 203.162,71.284 252.721,70.769 254.538 C 69.544 258.853,71.603 262.702,76.081 264.471 C 88.677 269.448,97.765 276.196,113.672 292.384 C 124.578 303.483,135.392 312.411,141.602 315.441 C 159.558 324.205,180.958 315.827,202.181 291.727 C 207.260 285.959,208.124 283.357,206.152 279.777 C 204.847 277.408,130.607 202.915,128.796 202.159 C 127.047 201.428,124.037 201.411,122.461 202.122 " fill="#353535" fill-rule="evenodd" id="path2" stroke="none"/><path d="" fill="#404040" fill-rule="evenodd" id="path3" stroke="none"/><path d="M193.164 171.094 C 194.440 172.383,195.571 173.438,195.679 173.438 C 195.786 173.438,194.830 172.383,193.555 171.094 C 192.279 169.805,191.148 168.750,191.040 168.750 C 190.933 168.750,191.888 169.805,193.164 171.094 M116.784 206.934 L 114.648 209.180 116.895 207.045 C 118.981 205.061,119.320 204.688,119.030 204.688 C 118.969 204.688,117.958 205.698,116.784 206.934 M165.625 216.211 C 166.792 217.393,167.835 218.359,167.942 218.359 C 168.049 218.359,167.183 217.393,166.016 216.211 C 164.849 215.029,163.806 214.063,163.699 214.063 C 163.591 214.063,164.458 215.029,165.625 216.211 M158.203 231.055 C 159.370 232.236,160.413 233.203,160.520 233.203 C 160.628 233.203,159.761 232.236,158.594 231.055 C 157.427 229.873,156.384 228.906,156.277 228.906 C 156.169 228.906,157.036 229.873,158.203 231.055 M248.034 245.996 L 245.898 248.242 248.145 246.107 C 250.231 244.124,250.570 243.750,250.280 243.750 C 250.219 243.750,249.208 244.761,248.034 245.996 " fill="#555555" fill-rule="evenodd" id="path4" stroke="none"/></g></svg>
